img/musicbee.svg

<svg xmlns="http://www.w3.org/2000/svg" width="48" height="48"><path fill="#212121" d="M25.77 3.306a11.579 8.363-11.478 1 0 3.328 16.391 11.579 8.363-11.478 1 0-3.329-16.391"/><path fill="#616161" d="M22 6a19 19 0 1 0 0 38 19 19 0 1 0 0-38"/><path fill="#ffcc80" d="M38 25c0 5.51-2.78 10.36-7.01 13.24C33.49 34.71 35 30.08 35 25s-1.51-9.71-4.01-13.24C35.22 14.64 38 19.49 38 25"/><path fill="#ffcc80" d="M32 25c0 6.67-2.61 12.58-6.62 16.21C27.64 37.07 29 31.77 29 26c0-2.14-.186-4.214-.536-6.188C29 20 31 20 31.521 20.121 31.834 21.682 32 23.317 32 25"/><path fill="#424242" d="M30.77 5.306a11.579 8.363-11.478 1 0 3.327 16.391A11.579 8.363-11.478 1 0 30.77 5.306"/><path fill="#bbdefb" d="M33.51 18.76c-.88.17-1.74.26-2.55.26-3.57 0-6.48-1.6-6.93-3.81-.25-1.22.25-2.58 1.4-3.84 1.4-1.52 3.51-2.63 5.93-3.13.88-.17 1.74-.26 2.55-.26 3.57 0 6.48 1.61 6.93 3.82.57 2.79-2.86 6.04-7.33 6.96"/><path fill="#f5f5f5" d="M13 17a8 8 0 1 0 0 16 8 8 0 1 0 0-16"/><path fill="#424242" d="M11.5 22a4.5 4.5 0 1 0 0 9 4.5 4.5 0 1 0 0-9"/><path fill="#616161" d="m44 40-8-3 2-3z"/></svg>

<svg xmlns="http://www.w3.org/2000/svg"  viewBox="0 0 48 48" width="48px" height="48px"><path fill="#212121" d="M27.434 3.138A11.579 8.363 0 1 0 27.434 19.863999999999997A11.579 8.363 0 1 0 27.434 3.138Z" transform="rotate(-11.478 27.436 11.504)"/><path fill="#616161" d="M22 6A19 19 0 1 0 22 44A19 19 0 1 0 22 6Z"/><path fill="#ffcc80" d="M38,25c0,5.51-2.78,10.36-7.01,13.24C33.49,34.71,35,30.08,35,25c0-5.08-1.51-9.71-4.01-13.24 C35.22,14.64,38,19.49,38,25z"/><path fill="#ffcc80" d="M32,25c0,6.67-2.61,12.58-6.62,16.21C27.64,37.07,29,31.77,29,26c0-2.14-0.186-4.214-0.536-6.188 C29,20,31,20,31.521,20.121C31.834,21.682,32,23.317,32,25z"/><path fill="#424242" d="M32.434 5.138A11.579 8.363 0 1 0 32.434 21.863999999999997A11.579 8.363 0 1 0 32.434 5.138Z" transform="rotate(-11.478 32.437 13.505)"/><path fill="#bbdefb" d="M33.51,18.76c-0.88,0.17-1.74,0.26-2.55,0.26c-3.57,0-6.48-1.6-6.93-3.81 c-0.25-1.22,0.25-2.58,1.4-3.84c1.4-1.52,3.51-2.63,5.93-3.13c0.88-0.17,1.74-0.26,2.55-0.26c3.57,0,6.48,1.61,6.93,3.82 C41.41,14.59,37.98,17.84,33.51,18.76z"/><path fill="#f5f5f5" d="M13 17A8 8 0 1 0 13 33A8 8 0 1 0 13 17Z"/><path fill="#424242" d="M11.5 22A4.5 4.5 0 1 0 11.5 31A4.5 4.5 0 1 0 11.5 22Z"/><path fill="#616161" d="M44 40L36 37 38 34z"/></svg>
